X:79
T: Emez asszony veje vagyok
O: Trunk (Bákó), 1930
Q: 1/4=168
M:2/4
L:1/4
K:D
DF | AB | (A>F) | (G/E/) (E/G/) | F z | 
DF | AB | (A>F) | (G/E/) (E/G/) | F z | 
B/A/G/F/ | E2 | D F | A z | 
B/A/G/F/ | (E>G) | F E | D z | 

